packages/kaspersky-hexa-ui-icons/src/iconsSVGs/24/TVSolid.svg

<svg width="24" height="24" viewBox="0 0 24 24" fill="none" xmlns="http://www.w3.org/2000/svg">
<path fill-rule="evenodd" clip-rule="evenodd" d="M5 3C3.34315 3 2 4.34315 2 6V15C2 16.6569 3.34315 18 5 18H7.58579L6.29289 19.2929C5.90237 19.6834 5.90237 20.3166 6.29289 20.7071C6.68342 21.0976 7.31658 21.0976 7.70711 20.7071L10.4142 18H13.5858L16.2929 20.7071C16.6834 21.0976 17.3166 21.0976 17.7071 20.7071C18.0976 20.3166 18.0976 19.6834 17.7071 19.2929L16.4142 18H19C20.6569 18 22 16.6569 22 15V6C22 4.34315 20.6569 3 19 3H5Z" fill="black"/>
</svg>

<svg xmlns="http://www.w3.org/2000/svg" width="24" height="24" fill="none" viewBox="0 0 24 24"><path fill="#000" fill-rule="evenodd" d="M5 3C3.3432 3 2 4.3431 2 6v9c0 1.6569 1.3432 3 3 3h2.5858l-1.293 1.2929c-.3904.3905-.3904 1.0237 0 1.4142.3906.3905 1.0238.3905 1.4143 0L10.4142 18h3.1716l2.7071 2.7071c.3905.3905 1.0237.3905 1.4142 0s.3905-1.0237 0-1.4142L16.4142 18H19c1.6569 0 3-1.3431 3-3V6c0-1.6569-1.3431-3-3-3z"/></svg>
